!!!SOCIAL_FUNCTION:	potlatch songs
!!!PDT:	1943
!!!OTL: No_34_Song_of_Approach_to_a_Potlatch.krn
!!!REG: British Columbia
**kern	**kern
*staff2	*staff1
=1-	=1-
*clefF4	*clefF4
*k[f#]	*k[f#]
*M2/4	*M2/4
8GG/L	[2d\
8GG/J	.
8GG/L	.
8GG/J	.
=2	=2
8GG/L	4d\]
8GG/J	.
4r	4B\
=3	=3
2r	4d\
.	12d\L
.	12d\
.	12d\J
=4	=4
2r	4d\
.	12d\L
.	12B\
.	12B\J
=5	=5
2r	[2B\
=6	=6
2r	4B\]
.	8G\
.	16r
.	16G\
=7	=7
2r	4B\
.	12d\L
.	12B\
.	12B\J
=8	=8
2r	4B\
.	12G\L
.	12G\
.	12G\J
=9	=9
2r	[2G\
=10	=10
2r	4G\]
.	4r
=11	=11
2r	4G\
.	12B\L
.	12B\
.	12B\J
=12	=12
2r	2d\
=13	=13
2r	16e\LK
.	8.d\J
.	8.B\L
.	16B\Jk
=14	=14
2r	4d\
.	12e\L
.	12d\
.	12d\J
=15	=15
2r	4d\
.	12d\L
.	12B\
.	12B\J
=16	=16
2r	2B\
=17	=17
2r	4B\
.	8G\
.	16r
.	16G\
=18	=18
2r	4B\
.	12d\L
.	12B\
.	12B\J
=19	=19
2r	4B\
.	12G\L
.	12G\
.	12G\J
=20	=20
2r	2G\
=21	=21
2r	4r
.	8.r
.	16G\
=22	=22
2r	4G\
.	8.B\L
.	16B\Jk
=23	=23
2r	2d\
=24	=24
2r	16e\LK
.	8.d\J
.	8B\
.	16r
.	16B\
=25	=25
2r	4d\
.	12d\L
.	12d\
.	12d\J
=26	=26
2r	4d\
.	12d\L
.	12B\
.	12B\J
=27	=27
2r	2B\
=28	=28
2r	16d\LK
.	8.B\J
.	8G\
.	16r
.	16G\
=29	=29
2r	4B\
.	12d\L
.	12B\
.	12B\J
=30	=30
2r	4B\
.	12G\L
.	12G\
.	12G\J
=31	=31
2r	2G\
==	==
*-	*-
